X:1
T:Nordhavet
T:Nordhavet
T:Bind 2, No. 16
T:F. A. Reissiger
C:F. A. Reissiger
%%score [ 1 2 3 4 ]
L:1/8
Q:1/4=92
M:9/8
K:E
V:1 treble-8 nm="T1"
V:2 treble-8 nm="T2"
V:3 bass nm="B1"
V:4 bass nm="B2"
V:1
!f!"^Moderato ed energico"!<(! B3/2 B/ e!<)! | g3- g d e f3/2!>(! e/ c!>)! | c3 B3 e G c | %3
w: 1.Ha- vet er|skjønt, _ naar det ro- li- gen|hvæl- ver staal- blan- ke|
w: 2.Ha- vet er|her- * ligt, og her- li- ge|Søn- ner sted- se det|
!<(! B3- B!<)! c d e3/2 g/ f |!>(! f3- f2!>)! z!mf! f e d | !>!d3 c2 ^A!<(! B c d!<)! | %6
w: Skjold _ o- ver Vi- kin- gers|Grav; _ skjønt, naar i|Bu- en, hvor Lys- straa- len|
w: fost- * red i kraft- ful- de|Favn; _ hver- gang dets|Rø- ster i Stor- me- ne|
!>(! f3 e3!>)!!<(! d e f!<)! | g3!>(! e2 d!>)! c3/2 d/ c | B3- B z z!f! B3/2 B/ B | %9
w: skjæl- ver, Him- len og|Sky- er- ne spej- le sig|af; _ her- ligt, naar|
w: drø- ner, vok- ser kun|Mo- det hos Vi- king i|Stavn. _ Kjæm- pe- hval|
 f3- f e d d3/2 c/ B | B3 e3 B3/2 B/ B | g3- g f ^e e3/2 d/ c | f2 z !>!a3!>(! !>!g2 f!>)! | %13
w: So- * len om Af- te- nen|da- ler, flam- mer som|Ild _ o- ver Hav- spej- lets|Grund; yn- digt, naar|
w: le- * ger paa skum- men- de|Fjel- de, sky- der sin|Straa- * le mod Him- me- lens|Sky. Sjø- kon- gen|
!mf! e3-!<(! e d e!<)! g f c |!>(! e3 d3!>)! e d c | B3- B!<(! G e!<)!"^poco rit." d B f | %16
w: Maa- * nen om Høst- nat- ten|ma- ler sit- tren- de|Søj- * le paa mør- ke- blaa|
w: ri- * der sin Dra- ge med|Væl- de, sjun- gen- de|fly- * ver om Lan- de hans|
!f! e3- e z z |] %17
w: Grund. _|
w: Ry. _|
V:2
!f!!<(! B3/2 B/ B!<)! | e3- e B c d3/2!>(! c/ A!>)! | A3 G3 G G G |!<(! A3- A!<)! A A G3/2 e/ e | %4
w: 1.Ha- vet er|skjønt, _ naar det ro- li- gen|hvæl- ver staal- blan- ke|Skjold _ o- ver Vi- kin- gers|
w: 2.Ha- vet er|her- * ligt, og her- li- ge|Søn- ner sted- se det|fost- * red i kraft- ful- de|
!>(! d3- d2!>)! z!mf! d c B | !>!^A3 A2 A!<(! B A B!<)! |!>(! c3 c3!>)!!<(! B B B!<)! | %7
w: Grav; _ skjønt, naar i|Bu- en, hvor Lys- straa- len|skjæl- ver, Him- len og|
w: Favn; _ hver- gang dets|Rø- ster i Stor- me- ne|drø- ner, vok- ser kun|
 (B2 ^B)!>(! c2 =B!>)! ^A3/2 A/ A | F3- F z z!f! B3/2 B/ B | B3- B B B A3/2 A/ A | %10
w: Sky- * er- ne spej- le sig|af; _ her- ligt, naar|So- * len om Af- te- nen|
w: Mo- * det hos Vi- king i|Stavn. _ Kjæm- pe- hval|le- * ger paa skum- men- de|
 G3 B3 B3/2 B/ B | B3- B B B B3/2 B/ B | A2 z !>!f3!>(! !>!e2 d!>)! |!mf! c3-!<(! c c c!<)! c c c | %14
w: da- ler, flam- mer som|Ild _ o- ver Hav- spej- lets|Grund; yn- digt, naar|Maa- * nen om Høst- nat- ten|
w: Fjel- de, sky- der sin|Straa- * le mod Him- me- lens|Sky. Sjø- kon- gen|ri- * der sin Dra- ge med|
!>(! A3 A3!>)! G B A | G3- G!<(! G B!<)!"^poco rit." B B B |!f! B3- B z z |] %17
w: ma- ler sit- tren- de|Søj- * le paa mør- ke- blaa|Grund. _|
w: Væl- de, sjun- gen- de|fly- * ver om Lan- de hans|Ry. _|
V:3
!f!!<(! B,3/2 B,/ B,!<)! | B,3- B, A, G, A,3/2!>(! A,/ E,!>)! | E,3 E,3 B, G, E, | %3
w: 1.Ha- vet er|skjønt, _ naar det ro- li- gen|hvæl- ver staal- blan- ke|
w: 2.Ha- vet er|her- * ligt, og her- li- ge|Søn- ner sted- se det|
!<(! F,3- F,!<)! F, F, E,3/2 ^A,/ A, |!>(! B,3- B,2!>)! z!mf! D, E, F, | %5
w: Skjold _ o- ver Vi- kin- gers|Grav; _ skjønt, naar i|
w: fost- * red i kraft- ful- de|Favn; _ hver- gang dets|
 !>!=G,3 G,2 F,!<(! F, F, F,!<)! |!>(! F,3 F,3!>)!!<(! F, B, =A,!<)! | %7
w: Bu- en, hvor Lys- straa- len|skjæl- ver, Him- len og|
w: Rø- ster i Stor- me- ne|drø- ner, vok- ser kun|
 G,3!>(! (G,F,) F,!>)! E,3/2 F,/ E, | D,3- D, z z!f! B,3/2 B,/ B, | A,3- A, A, A, F,3/2 E,/ D, | %10
w: Sky- er- * ne spej- le sig|af; _ her- ligt, naar|So- * len om Af- te- nen|
w: Mo- det _ hos Vi- king i|Stavn. _ Kjæm- pe- hval|le- * ger paa skum- men- de|
 E,3 G,3 G,3/2 G,/ F, | ^E,3- E, F, G, G,3/2 F,/ E, | C2 z !>!B,3!>(! !>!B,2 A,!>)! | %13
w: da- ler, flam- mer som|Ild _ o- ver Hav- spej- lets|Grund; yn- digt, naar|
w: Fjel- de, sky- der sin|Straa- * le mod Him- me- lens|Sky. Sjø- kon- gen|
!mf! G,3-!<(! G, F, G,!<)! A, A, A, |!>(! F,3 F,3!>)! E, E, E, | %15
w: Maa- * nen om Høst- nat- ten|ma- ler sit- tren- de|
w: ri- * der sin Dra- ge med|Væl- de, sjun- gen- de|
 E,3- E,!<(! E, G,!<)!"^poco rit." F, D, A, |!f! G,3- G, z z |] %17
w: Søj- * le paa mør- ke- blaa|Grund. _|
w: fly- * ver om Lan- de hans|Ry. _|
V:4
!f!!<(! B,3/2 B,/ G,!<)! | E,3- E, E, E, A,,3/2!>(! A,,/ C,!>)! | E,3 E,3 E, E, E, | %3
w: 1.Ha- vet er|skjønt, _ naar det ro- li- gen|hvæl- ver staal- blan- ke|
w: 2.Ha- vet er|her- * ligt, og her- li- ge|Søn- ner sted- se det|
!<(! D,3- D,!<)! C, ^B,, C,3/2 F,/ F, |!>(! B,,3- B,,2!>)! z!mf! B,, C, D, | %5
w: Skjold _ o- ver Vi- kin- gers|Grav; _ skjønt, naar i|
w: fost- * red i kraft- ful- de|Favn; _ hver- gang dets|
 !>!E,3 E,2 E,!<(! D, C, B,,!<)! |!>(! ^A,,3 A,,3!>)!!<(! B,, C, D,!<)! | %7
w: Bu- en, hvor Lys- straa- len|skjæl- ver, Him- len og|
w: Rø- ster i Stor- me- ne|drø- ner, vok- ser kun|
 (E,2 D,)!>(! (C,^A,,) B,,!>)! F,,3/2 F,,/ F,, | B,,3- B,, z z!f! B,3/2 B,/ B, | %9
w: Sky- * er- * ne spej- le sig|af; _ her- ligt, naar|
w: Mo- * det _ hos Vi- king i|Stavn. _ Kjæm- pe- hval|
 D,3- D, E, F, B,,3/2 B,,/ B,, | E,3 E,3 E,3/2 E,/ =D, | C,3- C, C, C, C,3/2 C,/ C, | %12
w: So- * len om Af- te- nen|da- ler, flam- mer som|Ild _ o- ver Hav- spej- lets|
w: le- * ger paa skum- men- de|Fjel- de, sky- der sin|Straa- * le mod Him- me- lens|
 [F,,F,]2 z !>!D,3!>(! !>!E,2 ^B,,!>)! |!mf! C,3-!<(! C, C, C,!<)! A,, A,, A,, | %14
w: Grund; yn- digt, naar|Maa- * nen om Høst- nat- ten|
w: Sky. Sjø- kon- gen|ri- * der sin Dra- ge med|
!>(! B,,3 ^B,,3!>)! C, G,, A,, | B,,3- B,,!<(! B,, B,,!<)!"^poco rit." B,, B,, B,, | %16
w: ma- ler sit- tren- de|Søj- * le paa mør- ke- blaa|
w: Væl- de, sjun- gen- de|fly- * ver om Lan- de hans|
!f! E,3- E, z z |] %17
w: Grund. _|
w: Ry. _|

